svgs/thin/nfc-lock.svg

<svg xmlns="http://www.w3.org/2000/svg" viewBox="0 0 576 512"><!--! Font Awesome Pro 6.6.0 by @fontawesome - https://fontawesome.com License - https://fontawesome.com/license (Commercial License) Copyright 2024 Fonticons, Inc. --><path d="M384 48L64 48C37.5 48 16 69.5 16 96l0 320c0 26.5 21.5 48 48 48l256 0 0 16L64 480c-35.3 0-64-28.7-64-64L0 96C0 60.7 28.7 32 64 32l320 0c35.3 0 64 28.7 64 64l0 65.3c-5.5 .9-10.9 2.3-16 4.1L432 96c0-26.5-21.5-48-48-48zM368 256l0 34c-5.7 1.5-11 3.7-16 6.5L352 136c0-4.4-3.6-8-8-8l-104 0c-4.4 0-8 3.6-8 8l0 80.8c18.3 3.7 32 19.8 32 39.2c0 22.1-17.9 40-40 40s-40-17.9-40-40c0-19.4 13.7-35.5 32-39.2l0-80.8c0-13.3 10.7-24 24-24l104 0c13.3 0 24 10.7 24 24l0 120zM320 400l-216 0c-13.3 0-24-10.7-24-24l0-240c0-13.3 10.7-24 24-24l48 0c4.4 0 8 3.6 8 8s-3.6 8-8 8l-48 0c-4.4 0-8 3.6-8 8l0 240c0 4.4 3.6 8 8 8l216 0 0 16zM224 232a24 24 0 1 0 0 48 24 24 0 1 0 0-48zm240-24c-26.5 0-48 21.5-48 48l0 64 96 0 0-64c0-26.5-21.5-48-48-48zm-64 48c0-35.3 28.7-64 64-64s64 28.7 64 64l0 64 16 0c17.7 0 32 14.3 32 32l0 128c0 17.7-14.3 32-32 32l-160 0c-17.7 0-32-14.3-32-32l0-128c0-17.7 14.3-32 32-32l16 0 0-64zm-16 80c-8.8 0-16 7.2-16 16l0 128c0 8.8 7.2 16 16 16l160 0c8.8 0 16-7.2 16-16l0-128c0-8.8-7.2-16-16-16l-16 0-16 0-96 0-16 0-16 0z"/></svg>

<svg xmlns="http://www.w3.org/2000/svg" viewBox="0 0 576 512"><!--! Font Awesome Pro 6.4.0 by @fontawesome - https://fontawesome.com License - https://fontawesome.com/license (Commercial License) Copyright 2023 Fonticons, Inc. --><path d="M384 48H64C37.5 48 16 69.5 16 96V416c0 26.5 21.5 48 48 48H320v16H64c-35.3 0-64-28.7-64-64V96C0 60.7 28.7 32 64 32H384c35.3 0 64 28.7 64 64v65.3c-5.5 .9-10.9 2.3-16 4.1V96c0-26.5-21.5-48-48-48zM368 256v34c-5.7 1.5-11 3.7-16 6.5V136c0-4.4-3.6-8-8-8H240c-4.4 0-8 3.6-8 8v80.8c18.3 3.7 32 19.8 32 39.2c0 22.1-17.9 40-40 40s-40-17.9-40-40c0-19.4 13.7-35.5 32-39.2V136c0-13.3 10.7-24 24-24H344c13.3 0 24 10.7 24 24V256zM320 400H104c-13.3 0-24-10.7-24-24V136c0-13.3 10.7-24 24-24h48c4.4 0 8 3.6 8 8s-3.6 8-8 8H104c-4.4 0-8 3.6-8 8V376c0 4.4 3.6 8 8 8H320v16zM224 232a24 24 0 1 0 0 48 24 24 0 1 0 0-48zm240-24c-26.5 0-48 21.5-48 48v64h96V256c0-26.5-21.5-48-48-48zm-64 48c0-35.3 28.7-64 64-64s64 28.7 64 64v64h16c17.7 0 32 14.3 32 32V480c0 17.7-14.3 32-32 32H384c-17.7 0-32-14.3-32-32V352c0-17.7 14.3-32 32-32h16V256zm-16 80c-8.8 0-16 7.2-16 16V480c0 8.8 7.2 16 16 16H544c8.8 0 16-7.2 16-16V352c0-8.8-7.2-16-16-16H528 512 416 400 384z"/></svg>
